svg/emoji_u1fa78.svg

<?xml version="1.0" encoding="utf-8"?>
<!-- Generator: Adobe Illustrator 24.1.2, SVG Export Plug-In . SVG Version: 6.00 Build 0)  -->
<svg version="1.1" id="Layer_1" xmlns="http://www.w3.org/2000/svg" xmlns:xlink="http://www.w3.org/1999/xlink" x="0px" y="0px"
	 viewBox="0 0 128 128" style="enable-background:new 0 0 128 128;" xml:space="preserve">
<g>
	<g>
		<path style="fill:#E5322E;" d="M88.04,44.26C75.44,28.81,69.87,15.67,66.68,7.83c-1.01-2.47-4.36-2.47-5.36,0
			c-3.19,7.84-8.76,20.98-21.36,36.43c-7.89,9.68-15.67,23.85-15.67,37.81c0,23.82,17.19,39.95,39.71,39.95s39.71-16.14,39.71-39.95
			C103.71,67.56,95.93,53.94,88.04,44.26z"/>
	</g>
	<path style="fill:#FF6050;" d="M74.98,79.84c6.35-12.08,5.45-23.9,10.47-21.77c6.82,2.91,14.37,17.86,11.54,31.41
		c-2.02,9.66-8.54,15.51-16.85,12.72C73.43,99.95,69.26,90.72,74.98,79.84z"/>
</g>
</svg>

<?xml version="1.0" encoding="UTF-8" standalone="no"?>
<!DOCTYPE svg PUBLIC "-//W3C//DTD SVG 1.1//EN" "http://www.w3.org/Graphics/SVG/1.1/DTD/svg11.dtd">
<svg width="100%" height="100%" viewBox="0 0 128 128" version="1.1" xmlns="http://www.w3.org/2000/svg" xmlns:xlink="http://www.w3.org/1999/xlink" xml:space="preserve" xmlns:serif="http://www.serif.com/" style="fill-rule:evenodd;clip-rule:evenodd;stroke-linejoin:round;stroke-miterlimit:2;">
    <g>
        <g>
            <path d="M88.04,44.26C75.44,28.81 69.87,15.67 66.68,7.83C65.67,5.36 62.32,5.36 61.32,7.83C58.13,15.67 52.56,28.81 39.96,44.26C32.07,53.94 24.29,68.11 24.29,82.07C24.29,105.89 41.48,122.02 64,122.02C86.52,122.02 103.71,105.88 103.71,82.07C103.71,67.56 95.93,53.94 88.04,44.26Z" style="fill:rgb(219,68,55);fill-rule:nonzero;"/>
        </g>
        <path d="M74.98,79.84C81.33,67.76 80.43,55.94 85.45,58.07C92.27,60.98 99.82,75.93 96.99,89.48C94.97,99.14 88.45,104.99 80.14,102.2C73.43,99.95 69.26,90.72 74.98,79.84Z" style="fill:rgb(229,115,115);fill-rule:nonzero;"/>
    </g>
</svg>
